X: 10591
T: Doug And Diana's Wedding
R: waltz
M: 3/4
K: Gmajor
|:Bc|d4 e2|d4 Bc|d3g fd|e4 dc|B4 d2|A4 d2|B6-|B4 Bc|
d4 e2|d4 Bc|d3g fd|e4 dc|B4 d2|A4 G2|G6-|G4:|
|:AG|F4 A2|c4 BA|G3D GB|d3B AG|F4 A2|c2 A2 e2|d6-|d4 c2|
B4 d2|A4 d2|F3G A2|G4 FE|D2 F2 A2|c4 F2|G6-|G4:|

